X:1
T:Title
%%score { 1 | 2 }
L:1/8
M:4/4
K:E
V:1 treble nm="Grand Piano"
V:2 bass 
V:1
 z4 z[Q:1/4=82] GFE | D3 E FG A>G | [B,DG]2 [A,DF]2- [A,DF][CDA][B,DG][A,DF] | %3
 [G,=D^E]3 [A,^DF] [DG][DA] [Dd]>[DB] | G4 z GFE | [EB]3 [B,EG] [A,EF][G,E][B,EG][EB] | %6
 [EB]2 [EA]2- [EA]EDE | [EG]3 [EG] [DG][A,DF][CDA][B,DG] |[M:13/8] [G,E]- [G,E]3 z z z z z z z z2 | %9
[M:4/4] [CEA]4 [B,EG]4 |] %10
V:2
 z4 z [E,B,E][E,A,D][E,G,] | [E,F,]3 [E,G,] [E,A,E][E,B,E] [E,CE]>[E,B,E] | %2
 B,,2 B,,2- B,,B,,B,,B,, | B,,3 B,, [B,,B,][B,,B,] [B,,B,]>[B,,B,] | %4
 [E,B,E]4 z [E,B,E][E,A,D][E,G,] | [=D,G,]3 D, D,D,D,[D,G,] | %6
 [C,A,]2 [C,A,]2- [C,A,][C,A,][C,A,][^B,,A,] | [B,,B,]3 [B,,B,] [B,,B,]B,,B,,B,, | %8
[M:13/8] E,- E,3 z z z z z z z z2 |[M:4/4] A,,4 E,4 |] %10

